X:1
T:12 Lieder
T:Komm, verhüllte Schöne
T:Moritz Hauptmann
T:Friedrich Rückert
T:Komm, verhüllte Schöne
T:Nr. 9 aus 12 Lieder, Op. 49
T:CPDL - Creative Commons Attribution Non Commercial 3.0
T:CPDL - Creative Commons Attribution Non Commercial 3.0
T:CPDL - Creative Commons Attribution Non Commercial 3.0
T:CPDL - Creative Commons Attribution Non Commercial 3.0
C:Moritz Hauptmann
Z:Friedrich Rückert
Z:CPDL - Creative Commons Attribution Non Commercial 3.0
%%score [ 1 ( 2 3 ) ( 4 5 6 7 ) ]
L:1/8
Q:1/4=80
M:3/4
K:Eb
V:1 treble-8 nm="Tenor\n1"
V:2 treble-8 nm="Tenor\n2"
V:3 treble-8 
V:4 bass nm="Bass"
V:5 bass 
V:6 bass 
V:7 bass 
V:1
|:"^Bei jeder Strophe zuerst Soli, dann Wiederholung durch den Chor"!mf!"^Moderato" B>e e>g gf | %1
w: 1.~Komm', ver- hüll- te Schö- ne!|
w: 2.~Tag mit lau- tem To- sen|
w: 3.~Al- le lo- sen Lüf- te|
 ee dc B2 |!<(! B>e e>!<)!g!f! gf |!mf! ed cf d2 :: %4
w: komm', o komm' her- aus,|lo- cken hel- le Tö- ne|dich nicht aus dem Haus?|
w: sank zur Ru- he hier,|Lieb- chen! al- le Ro- sen|schla- fen au- ßer dir.|
w: sind zur Ruh' im Laub;|Nacht- vi- o- len- düf- te|fürch- ten kei- nen Raub.|
"^dolce""^Bei jeder Strophe zuerst Soli," ff gf cd | %5
w: 1.~Komm' und schlag' den Schlei- er|
w: 2.~A- bend- glut um- rö- tet|
w: 3.~Lass uns still ge- nie- ßen|
"^dann Wiederholung durch den Chor" e!<(!B!<)! E>!>(!B!>)! B2 | ff gf ed |1 %7
w: dir vom An- ge- sicht,|zei- ge dich nur frei- er,|
w: starb der Ler- che Schall;|und aus Bü- schen flö- tet|
w: Mon- den- nacht in Ruh',|al- le Knos- pen schlie- ßen|
"^Soli" e!<(!c ef!<)! g2 :|2"^Chor" e!<(!c ef!<)! g2 || z2!p! G>G ce | d=B G>G ce | %11
w: sü- ßes Mon- den- licht!|sü- ßes Mon- den- licht!|1.~Un- ter ist die|Son- ne, de- ren Blick, so|
w: nun die Nach- ti- gall.|nun die Nach- ti- gall.|2.~Lüs- tern kei- ne|Bie- ne trägt mehr Ho- nig|
w: nun die Au- gen zu!|nun die Au- gen zu!|3.~Vor dem A- bend-|ster- ne wirst du nicht dich|
 d2 =B"^cresc."G ce |!mf!!<(! (e4 fe)!<)! | e"^dolce" e ag fe | d3"^cresc." (B e)e |!f! g4 f>e |1 %16
w: scharf, dei- ne mil- de|Won- * *|ne, dei- * ne mil- de|Won- ne nicht ver-|let- zen _|
w: ein, und an dei- ner|Mie- * *|ne saugt * mein Blick al-|lein, saugt _ mein|Blick al- *|
w: scheu'n, des- sen Blick sich|ger- * *|ne mag * an dir er-|freu'n, mag _ an|dir er~~~~~~~\-- *|
"^Wiederh. von Anfang\n mit nächster Strophe" e4 z2 :|3 e4 z2 || z6 | z2"^dolce" F2 f2 | B3 B cd | %21
w: darf.|3.~freu'n.||Komm'! o|komm' aus dei- nem|
w: lein.|||||
w: |||||
 e4 z2 |] %22
w: Haus!|
w: |
w: |
V:2
|:!mf! G>B B>e ed | eG BA G2 |!<(! G>c c>!<)!d!f! d=B |!mf! c_B B=A B2 ::"^dolce" _AA A3 A | %5
w: 1.~Komm', ver- hüll- te Schö- ne!|Komm', o komm' her- aus,|lo- cken hel- le Tö- ne|dich nicht aus dem Haus|1.~Komm' und schlag' den|
w: 2.~Tag mit lau- tem To- sen|sank zur Ru- he hier,|Lieb- chen! al- le Ro- sen|schla- fen au- ßer dir.|2.~A- bend- glut um-|
w: 3.~Al- le lo- sen Lüf- te|sind zur Ruh' im Laub;|Nacht- vi- o- len- düf- te|fürch- ten kei- nen Raub.|3.~Lass uns still ge-|
 G!<(!B!<)! c!>(!B!>)! AG | A A2 A A(A |1 G)!<(!c cd!<)! e2 :|2 G!<(!G cc!<)! =B2 || z2!p! G>G Gc | %10
w: Schlei- er dir vom An- ge-|sicht, zei- ge dich, sü-|* ßes Mon- den- licht!|~~~\- ßes Mon- den- licht!||
w: rö- tet starb der Ler- che|Schall; aus schen flö- tet|nun die Nach- ti- gall.|nun die Nach- ti- gall.||
w: nie- ßen Mon- den- nacht in|Ruh', all' pen schlie- ßen|nun die Au- gen zu!|nun die Au- gen zu!||
 =BG G>G Gc | =B2 G"^cresc."G Gc |!mf! _BG B2 z2 |"^dolce" AA A2 A2 | %14
w: |* * * mil- de|Won- * ne,|dei- ne mil- de|
w: |* * * dei- ner|Mie- * ne|saugt mein Blick al-|
w: |* * * Blick sich|ger- * ne|mag an dir er-|
"^Text wie Tenor 1" A3"^cresc." (A G)c |!f! B4 d2 |1 e4 z2 :|3 e4 z2 || z2"^dolce" E2 _d2 | %19
w: |||3.~freu'n.|Komm', o|
w: lein, * * *|||||
w: freu'n, * * *|||||
 c4 _c2 | (B2 =A2) _A2 | G4 z2 |] %22
w: komm' aus|dei- * nem|Haus!|
w: |||
w: |||
V:3
|: x6 | x6 | x6 | x6 :: x6 | x6 | x A A x3 |1 x6 :|2 x6 || x6 | x6 | x6 | x6 | x6 | x6 | x6 |1 %16
w: ||||||||||||||||
w: ||||||* Bü-||||||||||
w: ||||||* Knos-||||||||||
 x6 :|3 x6 || x6 | x6 | x6 | x6 |] %22
w: ||||||
w: ||||||
w: ||||||
V:4
|:!mf! E,>G, G,>B, B,A, | G,E, E,E, E,2 |!<(! E,>G, G,>!<)!=B,!f! B,G, |!mf! G,G, G,F, F,2 :: %4
w: ||||
w: ||||
w: ||||
"^dolce" D,D, (D,2 E,)F, | B,,!<(!G,!<)! A,!>(!G,!>)! F,E, | D, D,2 D, F,(F, |1 %7
w: |||
w: |||
w: |||
 E,)!<(!G, G,_B,!<)! B,2 :|2 E,!<(!G, G,C,!<)! D,2 ||!p! G,>G,!p!"^Text wie Tenor" G,G, G,2- | %10
w: ||1.~Un- ter ist die Son-|
w: ||2.~Lüs- tern kei- ne Bie-|
w: ||3.~Vor dem A- bend- ster-|
"^Text wie Tenor" G,>G, G,G, G,G, | G, G,2"^cresc." G, G,G, |!mf! G,E, G,2 z2 | %13
w: * ne, de- ren Blick, so|scharf, dei- ne * *||
w: * ne trägt mehr Ho- nig|ein, und an * *||
w: * ne wirst du nicht dich|scheu'n, des- sen * *||
"^dolce" A,A, E,2 F,2 |"^Text wie Tenor 1" F,>F, F,2 E,2- |!f! E,G, B,2 A,2 |1 G,4 z2 :|3 %17
w: |Won- ne nicht, nicht|_ ver- let- zen|darf.|
w: |* al- lein, saugt|_ mein Blick al-|lein.|
w: |* er- freu'n, mag|_ an dir er~~~~~~~\-~~~-||
 G,2"^dolce" E,2 _D2 || C4 B,2 | =A,4 _A,2 | (G,2 ^F,2) =F,2 | E,4 z2 |] %22
w: 3.~freu'n. Komm'! o|komm', *||||
w: |||||
w: |||||
V:5
|: E,>E, E,>E, E,E, | E,E, A,,C, E,2 | E,>C, C,>G,, G,,G, | C,C, E,F, B,,2 :: B,,B,, B,,3 B,, | %5
w: |||||
 B,,B,, B,,B,, B,,B,, | B,, B,,2 B,, B,,(=B,, |1 C,)E, C,_B,, E,2 :|2 C,E, C,A,, G,,2 || %9
w: ||||
 x2 G,>G, E,C, | G,,G, G,>G, E,C, | G,,2 G,G, E,C, | _D,2 D,2 x2 | C,C, C,2 =B,,2 | %14
w: |||||
 B,,3"^cresc." (B,, =C,)=A,, | B,,4 B,,2 |1 [E,,E,]4 x2 :|3 E,3!p! E,2 E, || E,3 E,2 E, | %19
w: Won- ne nicht ver-|let- zen||* Komm'! o|komm', komm' her-|
 E,3 E,2 E, | E,G,, B,,2 B,,2 | [E,,E,]4 x2 |] %22
w: aus, komm', o|komm' aus dei- nem|Haus!|
V:6
|: x6 | x6 | x6 | x6 :: x6 | x6 | x D, D, x3 |1 x6 :|2 x6 || x6 | x6 | x6 | x6 | x6 | x6 | x6 |1 %16
 x6 :|3 x6 || x6 | x6 | x6 | x6 |] %22
V:7
|: x6 | x6 | x6 | x6 :: x6 | x6 | x B,, B,, x3 |1 x6 :|2 x6 || x6 | x6 | x6 | x6 | x6 | x6 | x6 |1 %16
 x6 :|3 x6 || x6 | x6 | x6 | x6 |] %22

